X:48
T:Rye Straw
M:C
L:1/8
S:Peter Feldman â€“ Grey Cat on the Tennessee Farm
N:Hen Cackle Records HC-504
N:Transcribed by Bruce Thomson
K:D
|:â€Aâ€e3fe2ee|â€Dâ€defg edcd|â€Aâ€e3ee2ef|â€Dâ€gfed (3cdc Ac|â€Aâ€e3ee4|
â€œDâ€defd edef|gbfa edBd|â€Aâ€ceBd â€œDâ€cA3:||:â€Aâ€[E2A2][EA][EA]â€Dâ€[F2A2][FA][FA]|
â€œAâ€EFEC â€œDâ€B,C[E2A2]|â€Aâ€[E2A2][EA][EA]â€Dâ€[F2A2][FA][FA]|â€Aâ€EFAc (3BcB A2|
â€œAâ€[E2A2][EA][EA]â€Dâ€[F2A2][FA][FA]|â€Aâ€EFAc BcAF|â€Aâ€EFAB cdef|â€Dâ€gfed cBA2:|

